public/images/scroll-up-arrow.svg

<svg fill="none" height="84" viewBox="0 0 30 84" width="30" xmlns="http://www.w3.org/2000/svg"><path d="m16.08-.00000253c2.72 5.68000253 7.04 10.96000253 12.96 15.84000253v4.2c-5.12-2.48-8.96-4.8-11.52-6.96v69.96h-5.04v-69.96c-2.55999 2.16-6.39999 4.48-11.519994 6.96l.000001-4.2c5.840003-4.88 10.159993-10.16 12.959993-15.84000272z" fill="#1c2c63"/></svg>

<svg width="30" height="84" viewBox="0 0 30 84" fill="none" xmlns="http://www.w3.org/2000/svg">
<path d="M16.08 -2.52827e-06C18.8 5.68 23.12 10.96 29.04 15.84L29.04 20.04C23.92 17.56 20.08 15.24 17.52 13.08L17.52 83.04L12.48 83.04L12.48 13.08C9.92001 15.24 6.08001 17.56 0.960006 20.04L0.960007 15.84C6.80001 10.96 11.12 5.68 13.92 -2.7171e-06L16.08 -2.52827e-06Z" fill="#1C2C63"/>
</svg>
